!!!OTL: Kaiser Max von Mexiko (140), S. 314f
!!!id: T0309
**kern
*clefG2
*k[f#]
*G:
{8d
=1
4g
8g
8g
8f#
8g
=2
8a
8a}
4.r
=3
{8d
=4
4a
8a
8a
8b
8cc
=5
4b}
4.r
=6
{8b
=7
4b
8b
8b
8cc
8dd
=8
4.ee
8ee
8dd}
=9
{8cc
=10
4g
8g
4a
8a
=11
4dd}
4.r
=12
{8b
=13
4b
8b
8b
8cc
8dd
=14
4.ee
8ee
8dd}
=15
{8cc
=16
4g
8g
4b
8a
=17
4g}
4.r
==
*-
!!!minrhy: 8
!!!meters: 6/8 ]  ZZ[6
!!!cut: Kaiser Max von Mexiko (140), S. 314f
!!!reg: Luxemburg
!!!trd: Luxemburg
!!!rhy1: X  X_XXXX  XX0_.
!!!rhy2: X  X_XXXX  X_0_.
!!!key: T0309  08  G 6/8 ]  ZZ[6
!!!mod: HEPTATONIK IONISCH]  AMBITUS[9
!!!kad: 235551
!!!akz: 112_223_3366_125_3366_131_
!!!fot: 'a__as'b__c__b__d__
!!!for: 'a__aw_aw_b__aw_b__
!!!fok: '/__/__/__Va_/__Sd_
!! PHRAS[AUFTAKTIG]
!!!fkt: historische, Kriegs- und Soldatenlieder
!!!bem: Junglinster, hhh Vater des Autors, vor 1900
!! THILL, Mathias:
!! PR[37] 2K[3] 2G[8] 3K[3] 3G[0] 4A[8] 4Ü[0] 5A[3] 6K[0] 6G[0]
!! 7K[0] 7G[0] 8A[0] MEHR[0] SI[24] ABS[38] SR[11] SP[13]
!! ST[13] 2k[11] 2g[26] 3k[3] 3g[0] 4d[0] 4ü[0] 5d[0] 6k[0] 6g[0]
!! 7k[0] 7g[0] 8d[0] mehr[0] si[39] dm[-15] sr[37] sp[3]
!! 1F[81] 2F[14] 3F[0] 4F[0] LF[0] 2P[5] 3P[0] 4P[0] TRI[0] DF[3] AB[42]
!! TF[0] U3K[0] U3[0] U4[0] U4Ü[0] U5[10] U6K[0] U6[5] U7K[0] U7[3]
!! N1[15] N2K[0] N2[21] N3K[0] N3[26] N4[8] N4Ü[0] N5[10] N6K[0] N6[3]
!!!n7k: 0] N7[0] O1[0] O2K[0] O2[0] O3K[0] O3[0] HÖ[0
